static/assets/template/assets/img/icons/essential/detailed/Swimming.svg

<svg height="115" viewBox="0 0 151 115" width="151" xmlns="http://www.w3.org/2000/svg"><g fill="none" fill-rule="evenodd" transform="translate(2)"><path d="m146.9 13c-.1 3.5-1.9 6.3-4.8 7.5-1 .4-2.2.7-3.5.7-4.8 0-9.5-.3-14.3-.5-4.7-.2-9.4-.5-14.1-.7-.7 0-1.9.6-2.2 1.2-2.2 4.6-4.3 9.2-6.4 13.9-.3.7-.5 1.5-.6 2.2-.2 1.6.3 3.2 1.3 4.8 5.3 7.6 8.3 16.3 11.9 24.7 0 0 0 .1.1.1.1.2.2.7.5 1.4-1.7-.3-3.5-.4-5.6-.4-18.2 0-18.2 11.5-36.4 11.5-15.4 0-17.8-8.2-29.2-10.7-2.1-.5-4.4-.7-7.1-.7-6.6 0-10.8 1.5-14.4 3.4.1-.2.2-.3.2-.5 1.5-.7 2.8-1.3 4.2-1.9 1.5-.6 3-1.3 4.4-2 14.3-6.7 26.9-15.2 41.6-21.6 1.2-.5 2.4-1.6 2.9-2.8 4.7-10.3 9.3-20.7 13.9-31.2 2.5-5.7 6.9-10.5 15.5-9.5 11.5 1.3 23 1.7 34.5 2.6 4.4.3 7.2 3.2 7.5 7.3.1.4.1.8.1 1.2z" fill-rule="nonzero"/><path d="m57.3 51.6c5-2.7 10-5.3 15.3-7.6 1.2-.5 2.4-1.6 2.9-2.8 4.7-10.3 9.3-20.7 13.9-31.2 2.5-5.7 6.9-10.5 15.5-9.5 11.5 1.3 23 1.7 34.5 2.6 4.9.4 7.7 3.8 7.5 8.5v.1c-.2 3.3-1.8 5.9-4.3 7.2-1.1.6-2.4.9-3.9.9-4.8 0-9.5-.3-14.3-.5-4.7-.2-9.4-.5-14.1-.7-.7 0-1.9.6-2.2 1.2-2.2 4.6-4.3 9.2-6.4 13.9-.5 1.2-.7 2.4-.6 3.5.1 1.2.6 2.3 1.3 3.5 5.3 7.6 8.3 16.3 11.9 24.7 0 .1.2.6.5 1.5-.2 0-.3-.1-.5-.1-1.5-.2-3.3-.4-5.2-.4-18.2 0-18.2 11.5-36.4 11.5-14.7 0-17.5-7.4-27.6-10.3-2.4-.7-5.3-1.1-8.8-1.1-2 0-3.8.1-5.5.4-3.7.6-6.4 1.7-8.9 3 .1-.2.2-.3.2-.5 1.5-.7 2.8-1.3 4.2-1.9 11.2-4.5 20.9-10.4 31-15.9" fill-rule="nonzero"/><path d="m142.7 17.4c0 .5-.1 1-.2 1.5s-.2 1-.4 1.5c-1 .4-2.2.7-3.5.7-4.8 0-9.5-.3-14.3-.5-4.7-.2-9.4-.5-14.1-.7-.7 0-1.9.6-2.2 1.2-2.2 4.6-4.3 9.2-6.4 13.9-.3.7-.5 1.5-.6 2.2.1 1.2.6 2.3 1.3 3.5 2.3 3.3 4.2 6.8 5.8 10.4 2.2 4.7 4.1 9.5 6.1 14.3 0 .1.2.6.5 1.5-.2 0-.3-.1-.5-.1.1.2.2.7.5 1.4-1.7-.3-3.5-.4-5.6-.4-18.2 0-18.2 11.5-36.4 11.5-15.4 0-17.8-8.2-29.2-10.7.6-.3 1.1-.6 1.7-.9 1.7-1 3.4-2 5.3-3.2 6.6-4.2 14.7-9.6 29.7-16.9 1-.5 2-1.5 2.4-2.6 4-9.6 7.9-19.4 11.7-29.1 2.1-5.3 5.8-9.8 13-8.8 9.6 1.2 19.4 1.5 29 2.4 4.2.4 6.6 3.6 6.4 7.9z" fill-rule="nonzero"/><path d="m114.5 66.9c.1.2.2.7.5 1.4-1.7-.3-3.5-.4-5.6-.4-18.2 0-18.2 11.5-36.4 11.5-15.4 0-17.8-8.2-29.2-10.7.6-.3 1.1-.6 1.7-.9 1.7-1 3.4-2 5.3-3.2 16.7 2.1 25.4 2.5 36.2-3.3 8.8-4.7 17.2-4.4 23.3-6.4 2.2 4.7 2.3 5.9 4.4 10.6 0 .1.2.6.5 1.5-.4 0-.6-.1-.7-.1z" fill="#bad8ff" fill-rule="nonzero"/><circle cx="131.5" cy="46.5" fill-rule="nonzero" r="15.7"/><path d="m145.9 49.8c0 1.8-.4 3.5-1.1 5-1.4 3.2-4.2 5.8-7.6 6.8-.2.1-.5.1-.7.2-.5.1-1 .2-1.5.3-.3 0-.5.1-.7.1-.3 0-.5 0-.7 0s-.4 0-.6 0c-.1 0-.2 0-.3 0-6.1-.5-11-5.4-11.4-11.5 0-.3 0-.6 0-.9s0-.5 0-.8c.4-6.5 5.8-11.7 12.4-11.7 5.8 0 10.7 4 12 9.4.2.6.3 1.3.3 2-.1.5-.1.8-.1 1.1z" fill-rule="nonzero"/><path d="m145.9 49.8c0 1.8-.4 3.5-1.1 5-1.4 3.2-4.2 5.8-7.6 6.8-.2.1-.5.1-.7.2-.5.1-1 .2-1.5.3-.3 0-.5.1-.7.1-.3 0-.5 0-.7 0s-.4 0-.6 0c-.1 0-.3 0-.5 0h.1c-6.1-.5-11-5.4-11.4-11.5 7.6-.1 11.6 5.9 24.7-1.8z" fill="#bad8ff" fill-rule="nonzero"/><g stroke-linecap="round" stroke-linejoin="round" stroke-width="3"><path d="m145.2 92.6h.6"/><path d="m123.7 84.5c4.5 2.5 8 5.6 14 7.1"/><path d="m17.7 87.3c4.8-3 9.3-6.2 18.9-6.2 18.2 0 18.2 11.4 36.4 11.4s18.2-11.4 36.4-11.4c2.2 0 4.1.2 5.9.5"/><path d="m.2 92.6c4.5 0 8-.7 10.8-1.8"/><path d="m85.4 110.4c7.4-3.4 11.2-9 24-9 18.2 0 18.2 11.4 36.4 11.4"/><path d="m36.6 101.4c18.2 0 18.2 11.4 36.4 11.4 1.1 0 2.1 0 3.1-.1"/><path d="m.2 112.8c14.6 0 17.5-7.4 27.5-10.3"/><path d="m22.4 70.9c1.5-.7 2.8-1.3 4.2-1.9 1.5-.6 3-1.3 4.4-2 14.3-6.7 26.9-15.2 41.6-21.6 1.2-.5 2.4-1.6 2.9-2.8 4.7-10.3 9.3-20.7 13.9-31.2 2.5-5.7 6.9-10.5 15.5-9.5.9.1 1.9.2 2.8.3"/><path d="m125.9 3.6c4.5.3 9 .5 13.5.9 4.4.3 7.2 3.2 7.5 7.3v1.2c-.1 3.5-1.9 6.3-4.8 7.5-1 .4-2.2.7-3.5.7-4.8 0-9.5-.3-14.3-.5-4.7-.2-9.4-.5-14.1-.7-.7 0-1.9.6-2.2 1.2-2.2 4.6-4.3 9.2-6.4 13.9-.3.7-.5 1.5-.6 2.2-.2 1.6.3 3.2 1.3 4.8 5.3 7.6 8.3 16.3 11.9 24.7 0 0 0 .1.1.1.1.2.2.7.5 1.4-1.7-.3-3.5-.4-5.6-.4-18.2 0-18.2 11.5-36.4 11.5-14.4 0-17.4-7.1-27-10.1"/><path d="m115.1 2.9h.1"/><path d="m119.3 36.6c-2.2 2.7-3.5 6.2-3.5 9.9 0 8.7 7 15.7 15.7 15.7h.9.1c5.2-.3 9.7-3.2 12.3-7.3 1.2-2 2.1-4.3 2.3-6.7.1-.5.1-1.1.1-1.6 0-8.6-6.9-15.6-15.4-15.7"/><path d="m124.6 32.4c.1 0 .2-.1.2-.1"/></g></g></svg>

<?xml version="1.0" encoding="UTF-8"?>
<svg width="151px" height="115px" viewBox="0 0 151 115" version="1.1" xmlns="http://www.w3.org/2000/svg" xmlns:xlink="http://www.w3.org/1999/xlink">
    <!-- Generator: Sketch 51.2 (57519) - http://www.bohemiancoding.com/sketch -->
    <title>Swimming</title>
    <desc>Created with Sketch.</desc>
    <defs></defs>
    <g id="Page-1" stroke="none" stroke-width="1" fill="none" fill-rule="evenodd">
        <g id="Swimming" transform="translate(2.000000, 0.000000)">
            <path d="M146.9,13 C146.8,16.5 145,19.3 142.1,20.5 C141.1,20.9 139.9,21.2 138.6,21.2 C133.8,21.2 129.1,20.9 124.3,20.7 C119.6,20.5 114.9,20.2 110.2,20 C109.5,20 108.3,20.6 108,21.2 C105.8,25.8 103.7,30.4 101.6,35.1 C101.3,35.8 101.1,36.6 101,37.3 C101,37.3 101,37.3 101,37.3 C100.8,38.9 101.3,40.5 102.3,42.1 C107.6,49.7 110.6,58.4 114.2,66.8 C114.2,66.8 114.2,66.9 114.3,66.9 C114.4,67.1 114.5,67.6 114.8,68.3 C113.1,68 111.3,67.9 109.2,67.9 C91,67.9 91,79.4 72.8,79.4 C57.4,79.4 55,71.2 43.6,68.7 C41.5,68.2 39.2,68 36.5,68 C29.9,68 25.7,69.5 22.1,71.4 C22.2,71.2 22.3,71.1 22.3,70.9 C23.8,70.2 25.1,69.6 26.5,69 C28,68.4 29.5,67.7 30.9,67 C45.2,60.3 57.8,51.8 72.5,45.4 C73.7,44.9 74.9,43.8 75.4,42.6 C80.1,32.3 84.7,21.9 89.3,11.4 C91.8,5.7 96.2,0.9 104.8,1.9 C116.3,3.2 127.8,3.6 139.3,4.5 C143.7,4.8 146.5,7.7 146.8,11.8 C146.9,12.2 146.9,12.6 146.9,13 Z" id="Shape" class="fill-neutral" fill-rule="nonzero"></path>
            <path d="M57.3,51.6 C62.3,48.9 67.3,46.3 72.6,44 C73.8,43.5 75,42.4 75.5,41.2 C80.2,30.9 84.8,20.5 89.4,10 C91.9,4.3 96.3,-0.5 104.9,0.5 C116.4,1.8 127.9,2.2 139.4,3.1 C144.3,3.5 147.1,6.9 146.9,11.6 C146.9,11.7 146.9,11.7 146.9,11.7 C146.7,15 145.1,17.6 142.6,18.9 C141.5,19.5 140.2,19.8 138.7,19.8 C133.9,19.8 129.2,19.5 124.4,19.3 C119.7,19.1 115,18.8 110.3,18.6 C109.6,18.6 108.4,19.2 108.1,19.8 C105.9,24.4 103.8,29 101.7,33.7 C101.2,34.9 101,36.1 101.1,37.2 C101.1,37.2 101.1,37.2 101.1,37.2 C101.2,38.4 101.7,39.5 102.4,40.7 C107.7,48.3 110.7,57 114.3,65.4 C114.3,65.5 114.5,66 114.8,66.9 C114.6,66.9 114.5,66.8 114.3,66.8 C112.8,66.6 111,66.4 109.1,66.4 C90.9,66.4 90.9,77.9 72.7,77.9 C58,77.9 55.2,70.5 45.1,67.6 C42.7,66.9 39.8,66.5 36.3,66.5 C34.3,66.5 32.5,66.6 30.8,66.9 C27.1,67.5 24.4,68.6 21.9,69.9 C22,69.7 22.1,69.6 22.1,69.4 C23.6,68.7 24.9,68.1 26.3,67.5 C37.5,63 47.2,57.1 57.3,51.6" id="Shape" class="fill-neutral" fill-rule="nonzero"></path>
            <path d="M142.7,17.4 C142.7,17.9 142.6,18.4 142.5,18.9 C142.4,19.4 142.3,19.9 142.1,20.4 C141.1,20.8 139.9,21.1 138.6,21.1 C133.8,21.1 129.1,20.8 124.3,20.6 C119.6,20.4 114.9,20.1 110.2,19.9 C109.5,19.9 108.3,20.5 108,21.1 C105.8,25.7 103.7,30.3 101.6,35 C101.3,35.7 101.1,36.5 101,37.2 C101,37.2 101,37.2 101,37.2 C101.1,38.4 101.6,39.5 102.3,40.7 C104.6,44 106.5,47.5 108.1,51.1 C110.3,55.8 112.2,60.6 114.2,65.4 C114.2,65.5 114.4,66 114.7,66.9 C114.5,66.9 114.4,66.8 114.2,66.8 C114.3,67 114.4,67.5 114.7,68.2 C113,67.9 111.2,67.8 109.1,67.8 C90.9,67.8 90.9,79.3 72.7,79.3 C57.3,79.3 54.9,71.1 43.5,68.6 C44.1,68.3 44.6,68 45.2,67.7 C46.9,66.7 48.6,65.7 50.5,64.5 C57.1,60.3 65.2,54.9 80.2,47.6 C81.2,47.1 82.2,46.1 82.6,45 C86.6,35.4 90.5,25.6 94.3,15.9 C96.4,10.6 100.1,6.1 107.3,7.1 C116.9,8.3 126.7,8.6 136.3,9.5 C140.5,9.9 142.9,13.1 142.7,17.4 Z" id="Shape" class="fill-primary-100" fill-rule="nonzero"></path>
            <path d="M114.5,66.9 C114.6,67.1 114.7,67.6 115,68.3 C113.3,68 111.5,67.9 109.4,67.9 C91.2,67.9 91.2,79.4 73,79.4 C57.6,79.4 55.2,71.2 43.8,68.7 C44.4,68.4 44.9,68.1 45.5,67.8 C47.2,66.8 48.9,65.8 50.8,64.6 C67.5,66.7 76.2,67.1 87,61.3 C95.8,56.6 104.2,56.9 110.3,54.9 C112.5,59.6 112.6,60.8 114.7,65.5 C114.7,65.6 114.9,66.1 115.2,67 C114.8,67 114.6,66.9 114.5,66.9 Z" id="Shape" fill="#BAD8FF" fill-rule="nonzero"></path>
            <circle id="Oval" class="fill-neutral" fill-rule="nonzero" cx="131.5" cy="46.5" r="15.7"></circle>
            <path d="M145.9,49.8 C145.9,51.6 145.5,53.3 144.8,54.8 C143.4,58 140.6,60.6 137.2,61.6 C137,61.7 136.7,61.7 136.5,61.8 C136,61.9 135.5,62 135,62.1 C134.7,62.1 134.5,62.2 134.3,62.2 C134,62.2 133.8,62.2 133.6,62.2 C133.4,62.2 133.2,62.2 133,62.2 C132.9,62.2 132.8,62.2 132.7,62.2 C126.6,61.7 121.7,56.8 121.3,50.7 C121.3,50.4 121.3,50.1 121.3,49.8 C121.3,49.5 121.3,49.3 121.3,49 C121.7,42.5 127.1,37.3 133.7,37.3 C139.5,37.3 144.4,41.3 145.7,46.7 C145.9,47.3 146,48 146,48.7 C145.9,49.2 145.9,49.5 145.9,49.8 Z" id="Shape" class="fill-primary-100" fill-rule="nonzero"></path>
            <path d="M145.9,49.8 C145.9,51.6 145.5,53.3 144.8,54.8 C143.4,58 140.6,60.6 137.2,61.6 C137,61.7 136.7,61.7 136.5,61.8 C136,61.9 135.5,62 135,62.1 C134.7,62.1 134.5,62.2 134.3,62.2 C134,62.2 133.8,62.2 133.6,62.2 C133.4,62.2 133.2,62.2 133,62.2 C132.9,62.2 132.7,62.2 132.5,62.2 C132.6,62.2 132.6,62.2 132.6,62.2 C126.5,61.7 121.6,56.8 121.2,50.7 C128.8,50.6 132.8,56.6 145.9,48.9 C145.9,49.2 145.9,49.5 145.9,49.8 Z" id="Shape" fill="#BAD8FF" fill-rule="nonzero"></path>
            <path d="M145.2,92.6 C145.4,92.6 145.6,92.6 145.8,92.6" id="Shape" class="stroke-primary" stroke-width="3" stroke-linecap="round" stroke-linejoin="round"></path>
            <path d="M123.7,84.5 C128.2,87 131.7,90.1 137.7,91.6" id="Shape" class="stroke-primary" stroke-width="3" stroke-linecap="round" stroke-linejoin="round"></path>
            <path d="M17.7,87.3 C22.5,84.3 27,81.1 36.6,81.1 C54.8,81.1 54.8,92.5 73,92.5 C91.2,92.5 91.2,81.1 109.4,81.1 C111.6,81.1 113.5,81.3 115.3,81.6" id="Shape" class="stroke-primary" stroke-width="3" stroke-linecap="round" stroke-linejoin="round"></path>
            <path d="M0.2,92.6 C4.7,92.6 8.2,91.9 11,90.8" id="Shape" class="stroke-primary" stroke-width="3" stroke-linecap="round" stroke-linejoin="round"></path>
            <path d="M85.4,110.4 C92.8,107 96.6,101.4 109.4,101.4 C127.6,101.4 127.6,112.8 145.8,112.8" id="Shape" class="stroke-primary" stroke-width="3" stroke-linecap="round" stroke-linejoin="round"></path>
            <path d="M36.6,101.4 C54.8,101.4 54.8,112.8 73,112.8 C74.1,112.8 75.1,112.8 76.1,112.7" id="Shape" class="stroke-primary" stroke-width="3" stroke-linecap="round" stroke-linejoin="round"></path>
            <path d="M0.2,112.8 C14.8,112.8 17.7,105.4 27.7,102.5" id="Shape" class="stroke-primary" stroke-width="3" stroke-linecap="round" stroke-linejoin="round"></path>
            <path d="M22.4,70.9 C23.9,70.2 25.2,69.6 26.6,69 C28.1,68.4 29.6,67.7 31,67 C45.3,60.3 57.9,51.8 72.6,45.4 C73.8,44.9 75,43.8 75.5,42.6 C80.2,32.3 84.8,21.9 89.4,11.4 C91.9,5.7 96.3,0.9 104.9,1.9 C105.8,2 106.8,2.1 107.7,2.2" id="Shape" class="stroke-primary" stroke-width="3" stroke-linecap="round" stroke-linejoin="round"></path>
            <path d="M125.9,3.6 C130.4,3.9 134.9,4.1 139.4,4.5 C143.8,4.8 146.6,7.7 146.9,11.8 C146.9,12.2 146.9,12.6 146.9,13 C146.8,16.5 145,19.3 142.1,20.5 C141.1,20.9 139.9,21.2 138.6,21.2 C133.8,21.2 129.1,20.9 124.3,20.7 C119.6,20.5 114.9,20.2 110.2,20 C109.5,20 108.3,20.6 108,21.2 C105.8,25.8 103.7,30.4 101.6,35.1 C101.3,35.8 101.1,36.6 101,37.3 C101,37.3 101,37.3 101,37.3 C100.8,38.9 101.3,40.5 102.3,42.1 C107.6,49.7 110.6,58.4 114.2,66.8 C114.2,66.8 114.2,66.9 114.3,66.9 C114.4,67.1 114.5,67.6 114.8,68.3 C113.1,68 111.3,67.9 109.2,67.9 C91,67.9 91,79.4 72.8,79.4 C58.4,79.4 55.4,72.3 45.8,69.3" id="Shape" class="stroke-primary" stroke-width="3" stroke-linecap="round" stroke-linejoin="round"></path>
            <path d="M115.1,2.9 C115.1,2.9 115.2,2.9 115.2,2.9" id="Shape" class="stroke-primary" stroke-width="3" stroke-linecap="round" stroke-linejoin="round"></path>
            <path d="M119.3,36.6 C117.1,39.3 115.8,42.8 115.8,46.5 C115.8,55.2 122.8,62.2 131.5,62.2 C131.8,62.2 132.1,62.2 132.4,62.2 C132.5,62.2 132.5,62.2 132.5,62.2 C137.7,61.9 142.2,59 144.8,54.9 C146,52.9 146.9,50.6 147.1,48.2 C147.2,47.7 147.2,47.1 147.2,46.6 C147.2,38 140.3,31 131.8,30.9" id="Shape" class="stroke-primary" stroke-width="3" stroke-linecap="round" stroke-linejoin="round"></path>
            <path d="M124.6,32.4 C124.7,32.4 124.8,32.3 124.8,32.3" id="Shape" class="stroke-primary" stroke-width="3" stroke-linecap="round" stroke-linejoin="round"></path>
        </g>
    </g>
</svg>
